public/cards/7_green.svg

<svg width="242" height="362" viewBox="0 0 242 362" fill="none" xmlns="http://www.w3.org/2000/svg">
<path d="M201 1H41C18.9086 1 1 18.9086 1 41V321C1 343.091 18.9086 361 41 361H201C223.091 361 241 343.091 241 321V41C241 18.9086 223.091 1 201 1Z" fill="white" stroke="black" stroke-width="2"/>
<path d="M201 21H41C29.9543 21 21 29.9543 21 41V321C21 332.046 29.9543 341 41 341H201C212.046 341 221 332.046 221 321V41C221 29.9543 212.046 21 201 21Z" fill="#55AA55"/>
<path fill-rule="evenodd" clip-rule="evenodd" d="M181 80.9999C92.6344 80.9999 21 152.634 21 241C21 263.091 38.9086 281 61 281C149.366 281 221 209.365 221 121C221 98.9085 203.091 80.9999 181 80.9999Z" fill="white"/>
<path fill-rule="evenodd" clip-rule="evenodd" d="M87 121V161H107V141H147L107 241H127L167 141V121H107H87Z" fill="#55AA55"/>
<path fill-rule="evenodd" clip-rule="evenodd" d="M31 31V51H41V41H61L41 91H51L71 41V31H41H31Z" fill="white"/>
<path fill-rule="evenodd" clip-rule="evenodd" d="M211 331V311H201V321H181L201 271H191L171 321V331H201H211Z" fill="white"/>
</svg>

<svg xmlns="http://www.w3.org/2000/svg" width="242" height="362" fill="none"><path fill="#fff" stroke="#000" stroke-width="2" d="M201 1H41C18.909 1 1 18.909 1 41v280c0 22.091 17.909 40 40 40h160c22.091 0 40-17.909 40-40V41c0-22.091-17.909-40-40-40Z"/><path fill="#5A5" d="M201 21H41c-11.046 0-20 8.954-20 20v280c0 11.046 8.954 20 20 20h160c11.046 0 20-8.954 20-20V41c0-11.046-8.954-20-20-20Z"/><path fill="#fff" fill-rule="evenodd" d="M181 81C92.634 81 21 152.634 21 241c0 22.091 17.909 40 40 40 88.366 0 160-71.635 160-160 0-22.091-17.909-40-40-40Z" clip-rule="evenodd"/><path fill="#5A5" fill-rule="evenodd" d="M87 121v40h20v-20h40l-40 100h20l40-100v-20H87Z" clip-rule="evenodd"/><path fill="#fff" fill-rule="evenodd" d="M31 31v20h10V41h20L41 91h10l20-50V31H31Zm180 300v-20h-10v10h-20l20-50h-10l-20 50v10h40Z" clip-rule="evenodd"/></svg>
